images/LOGOS_CLIENTES/SUPERVIELLE.svg

<svg width="112" height="45" viewBox="0 0 112 45" fill="none" xmlns="http://www.w3.org/2000/svg">
<path d="M81.9264 0.480654C83.9504 5.71578 86.2645 16.3277 80.8382 27.9851C80.7754 28.1362 80.9692 28.2698 81.1751 28.1362C87.6749 23.8796 93.3431 15.7181 95.2067 9.04989C88.7363 5.73716 84.8448 2.31482 82.4879 0.119701C82.1751 -0.183765 81.79 0.14644 81.9264 0.480654Z" fill="black"/>
<path d="M4.99241 37.0784C3.14087 36.4434 2.60078 36.1386 2.60078 35.3499C2.60078 34.6306 3.3815 34.0906 4.41489 34.0906C5.38679 34.0906 6.41082 34.3766 7.53244 34.9595C7.55115 34.9729 7.57656 34.9782 7.59393 34.9782C7.618 34.9782 7.6434 34.9729 7.66078 34.9595C7.69821 34.9408 7.72495 34.9034 7.73564 34.8552L8.03643 32.9302C8.04312 32.87 8.01103 32.8072 7.95488 32.7831C6.93353 32.3232 5.70228 32.0732 4.4804 32.0732C2.07673 32.0732 0.396307 33.5277 0.396307 35.6039C0.396307 37.5142 1.67835 38.3123 4.20367 39.196C5.87875 39.7682 6.43221 40.1064 6.43221 40.9941C6.43221 41.8831 5.58999 42.4593 4.27319 42.4593C3.18365 42.4593 1.70241 42.0542 0.507265 41.4312C0.484539 41.4165 0.464486 41.4112 0.440422 41.4112C0.416359 41.4112 0.396306 41.4165 0.378927 41.4272C0.336148 41.4499 0.309411 41.4874 0.304064 41.5302L-0.000739039 43.4138C-0.00876017 43.4739 0.0233243 43.5368 0.0848196 43.5635C1.44707 44.137 2.90291 44.4565 4.17961 44.4565C6.84797 44.4565 8.63935 42.9633 8.63935 40.7414C8.64069 38.7308 7.35998 37.9033 4.99241 37.0784Z" fill="black"/>
<path d="M20.7061 32.2362H18.5925C18.5177 32.2362 18.4535 32.2977 18.4535 32.3752V39.5301C18.4535 41.4458 17.5551 42.4605 15.8507 42.4605C14.1889 42.4605 13.2732 41.403 13.2732 39.482V32.3739C13.2732 32.2964 13.2117 32.2349 13.1315 32.2349H11.0407C10.9671 32.2349 10.9043 32.2964 10.9043 32.3739V39.5755C10.9043 42.6757 12.7465 44.5272 15.8279 44.5272C18.9695 44.5272 20.8478 42.6396 20.8478 39.482V32.3739C20.8492 32.2977 20.7877 32.2362 20.7061 32.2362Z" fill="black"/>
<path d="M27.7646 37.7682H26.417V34.279H27.8114C28.8314 34.279 30.0426 34.5852 30.0426 36.0223C30.0426 37.1947 29.3019 37.7682 27.7646 37.7682ZM28.0212 32.2363H24.1831C24.1083 32.2363 24.0508 32.2978 24.0508 32.3754V44.1557C24.0508 44.2319 24.1083 44.2988 24.1831 44.2988H26.278C26.3528 44.2988 26.4157 44.2319 26.4157 44.1557V39.7842H27.7632C30.6883 39.7842 32.3607 38.3992 32.3607 35.9755C32.362 33.6681 30.7003 32.2363 28.0212 32.2363Z" fill="black"/>
<path d="M42.3102 42.1825H37.0604V39.0877H41.4025C41.4426 39.0877 41.4841 39.0703 41.5081 39.0423C41.5375 39.0088 41.5456 38.9674 41.5389 38.9286L41.2408 37.0918C41.2274 37.0249 41.1712 36.9755 41.0977 36.9755H37.0604V34.3486H42.1472C42.222 34.3486 42.2862 34.2884 42.2862 34.2082V32.3754C42.2862 32.2978 42.222 32.2363 42.1472 32.2363H34.8265C34.753 32.2363 34.6875 32.2978 34.6875 32.3754V44.1557C34.6875 44.2319 34.7517 44.2988 34.8265 44.2988H42.3089C42.3838 44.2988 42.4453 44.2319 42.4453 44.1557V42.3216C42.4479 42.244 42.3864 42.1825 42.3102 42.1825Z" fill="black"/>
<path d="M50.9996 36.0223C50.9996 37.192 50.2042 37.8337 48.767 37.8337H47.3727V34.3272H48.767C49.7871 34.3272 50.9996 34.6226 50.9996 36.0223ZM50.9876 39.4126C52.5249 38.8203 53.3672 37.6145 53.3672 36.0022C53.3672 33.64 51.6573 32.2363 48.7924 32.2363H45.1415C45.068 32.2363 45.0078 32.2978 45.0078 32.3754V44.1557C45.0078 44.2319 45.0666 44.2988 45.1415 44.2988H47.2377C47.3125 44.2988 47.3727 44.2319 47.3727 44.1557V39.7428H48.4435L51.6934 44.3776C51.7215 44.4151 51.7643 44.4325 51.8084 44.4325C51.8084 44.4325 51.8258 44.4325 51.8338 44.4284L53.9995 43.9405C54.0423 43.9311 54.0797 43.8977 54.0984 43.8563C54.1145 43.8095 54.1091 43.7627 54.0797 43.7239L50.9876 39.4126Z" fill="black"/>
<path d="M66.0324 32.2484H63.9242C63.8614 32.2484 63.8106 32.2831 63.7932 32.3406L60.4858 41.1639L57.2386 32.3353C57.2212 32.2764 57.1637 32.239 57.1089 32.239H54.8108C54.7681 32.2484 54.736 32.2738 54.7186 32.3085C54.6986 32.3446 54.6932 32.3861 54.7066 32.4235L59.3013 44.1972C59.3254 44.2507 59.3709 44.2827 59.4283 44.2827H61.3668C61.4229 44.2827 61.4751 44.2507 61.4925 44.1972L66.1621 32.4395C66.1808 32.3941 66.1754 32.346 66.1487 32.3072C66.1246 32.2684 66.0779 32.2484 66.0324 32.2484Z" fill="black"/>
<path d="M70.6016 32.2363H68.4907C68.4145 32.2363 68.3477 32.2978 68.3477 32.3754V44.1557C68.3477 44.2319 68.4145 44.2988 68.4907 44.2988H70.6016C70.6805 44.2988 70.7433 44.2319 70.7433 44.1557V32.3754C70.7433 32.2978 70.6805 32.2363 70.6016 32.2363Z" fill="black"/>
<path d="M82.1988 42.1825H76.9476V39.0877H81.2911C81.3339 39.0877 81.3713 39.0703 81.398 39.0423C81.4221 39.0088 81.4355 38.9674 81.4274 38.9286L81.1253 37.0918C81.1173 37.0249 81.0558 36.9755 80.9916 36.9755H76.9476V34.3486H82.0317C82.1119 34.3486 82.1748 34.2884 82.1748 34.2082V32.3754C82.1748 32.2978 82.1119 32.2363 82.0317 32.2363H74.7164C74.6416 32.2363 74.5801 32.2978 74.5801 32.3754V44.1557C74.5801 44.2319 74.6416 44.2988 74.7164 44.2988H82.1975C82.2723 44.2988 82.3365 44.2319 82.3365 44.1557V42.3216C82.3378 42.244 82.2737 42.1825 82.1988 42.1825Z" fill="black"/>
<path d="M101.331 42.2026H97.0036V32.3754C97.0036 32.2978 96.9421 32.2363 96.8699 32.2363H94.775C94.7002 32.2363 94.6387 32.2978 94.6387 32.3754V44.1557C94.6387 44.2319 94.7002 44.2988 94.775 44.2988H101.63C101.667 44.2988 101.709 44.2814 101.735 44.248C101.761 44.2145 101.772 44.1771 101.768 44.1357L101.465 42.3229C101.458 42.2534 101.395 42.2026 101.331 42.2026Z" fill="black"/>
<path d="M111.33 42.1825H106.073V39.0877H110.422C110.459 39.0877 110.501 39.0703 110.526 39.0423C110.553 39.0088 110.564 38.9674 110.56 38.9286L110.254 37.0918C110.247 37.0249 110.189 36.9755 110.117 36.9755H106.074V34.3486H111.168C111.243 34.3486 111.307 34.2884 111.307 34.2082V32.3754C111.307 32.2978 111.243 32.2363 111.168 32.2363H103.85C103.77 32.2363 103.711 32.2978 103.711 32.3754V44.1557C103.711 44.2319 103.771 44.2988 103.85 44.2988H111.331C111.406 44.2988 111.467 44.2319 111.467 44.1557V42.3216C111.467 42.244 111.405 42.1825 111.33 42.1825Z" fill="black"/>
<path d="M111.203 14.2261C105.817 13.3799 100.574 11.6139 97.1606 9.99097C95.182 15.174 91.3653 20.7286 87.3694 24.548C87.1515 24.7351 87.3253 25.0587 87.6823 24.8073C96.2167 18.9038 105.108 16.071 111.212 14.8879C111.545 14.813 111.55 14.3197 111.203 14.2261Z" fill="black"/>
<path d="M92.1395 42.2026H87.8174V32.3754C87.8174 32.2978 87.7586 32.2363 87.6784 32.2363H85.5875C85.5127 32.2363 85.4512 32.2978 85.4512 32.3754V44.1557C85.4512 44.2319 85.5127 44.2988 85.5875 44.2988H92.4429C92.4804 44.2988 92.5245 44.2814 92.5472 44.248C92.5739 44.2145 92.5833 44.1771 92.5793 44.1357L92.2745 42.3229C92.2651 42.2534 92.209 42.2026 92.1395 42.2026Z" fill="black"/>
</svg>

<svg width="112" height="45" fill="none" xmlns="http://www.w3.org/2000/svg"><path d="M81.926.48c2.024 5.236 4.338 15.848-1.088 27.505-.063.151.131.285.337.151 6.5-4.256 12.168-12.418 14.032-19.086-6.47-3.313-10.362-6.735-12.72-8.93-.312-.304-.697.026-.56.36ZM4.992 37.078c-1.851-.635-2.391-.94-2.391-1.728 0-.72.78-1.26 1.814-1.26.972 0 1.996.287 3.117.87a.113.113 0 0 0 .062.018c.024 0 .05-.005.067-.019a.148.148 0 0 0 .075-.104l.3-1.925a.144.144 0 0 0-.081-.147c-1.021-.46-2.253-.71-3.475-.71-2.403 0-4.084 1.455-4.084 3.53 0 1.911 1.282 2.71 3.808 3.593 1.675.572 2.228.91 2.228 1.798 0 .89-.842 1.465-2.159 1.465-1.09 0-2.57-.405-3.766-1.028a.115.115 0 0 0-.067-.02.114.114 0 0 0-.061.016.136.136 0 0 0-.075.103L0 43.414a.143.143 0 0 0 .086.15c1.362.573 2.818.892 4.095.892 2.668 0 4.46-1.493 4.46-3.715 0-2.01-1.28-2.838-3.648-3.663ZM20.706 32.236h-2.113a.14.14 0 0 0-.14.14v7.154c0 1.916-.898 2.93-2.602 2.93-1.662 0-2.578-1.057-2.578-2.978v-7.108a.139.139 0 0 0-.141-.14H11.04a.138.138 0 0 0-.137.14v7.201c0 3.1 1.842 4.952 4.924 4.952 3.142 0 5.02-1.887 5.02-5.045v-7.108a.137.137 0 0 0-.142-.138ZM27.765 37.768h-1.348V34.28h1.394c1.02 0 2.232.306 2.232 1.743 0 1.173-.741 1.746-2.278 1.746Zm.256-5.532h-3.838c-.075 0-.132.062-.132.14v11.78c0 .076.057.143.132.143h2.095a.143.143 0 0 0 .138-.143v-4.372h1.347c2.925 0 4.598-1.385 4.598-3.809.001-2.307-1.66-3.739-4.34-3.739ZM42.31 42.182h-5.25v-3.094h4.343c.04 0 .081-.018.105-.046a.134.134 0 0 0 .03-.113l-.297-1.837a.143.143 0 0 0-.143-.117H37.06V34.35h5.087a.14.14 0 0 0 .14-.14v-1.834a.14.14 0 0 0-.14-.139h-7.32a.14.14 0 0 0-.14.14v11.78c0 .076.065.143.14.143h7.482c.075 0 .136-.067.136-.143v-1.834a.134.134 0 0 0-.135-.14ZM51 36.022c0 1.17-.796 1.812-2.233 1.812h-1.394v-3.507h1.394c1.02 0 2.233.296 2.233 1.695Zm-.012 3.39c1.537-.592 2.38-1.797 2.38-3.41 0-2.362-1.71-3.766-4.576-3.766h-3.65a.136.136 0 0 0-.134.14v11.78c0 .076.059.143.133.143h2.097c.075 0 .135-.067.135-.143v-4.413h1.07l3.25 4.635a.14.14 0 0 0 .115.054s.018 0 .026-.004l2.165-.487a.148.148 0 0 0 .1-.085.138.138 0 0 0-.02-.132l-3.091-4.311ZM66.032 32.248h-2.108c-.063 0-.113.035-.13.093l-3.308 8.823-3.247-8.829a.138.138 0 0 0-.13-.096H54.81a.132.132 0 0 0-.092.07.14.14 0 0 0-.012.114L59.3 44.197c.024.054.07.086.127.086h1.939a.13.13 0 0 0 .126-.086l4.67-11.758a.137.137 0 0 0-.014-.132.136.136 0 0 0-.117-.059ZM70.602 32.236H68.49a.142.142 0 0 0-.143.14v11.78c0 .076.067.143.143.143h2.11a.144.144 0 0 0 .142-.143v-11.78a.14.14 0 0 0-.141-.14ZM82.199 42.182h-5.251v-3.094h4.343c.043 0 .08-.018.107-.046a.147.147 0 0 0 .03-.113l-.303-1.837a.136.136 0 0 0-.133-.117h-4.044V34.35h5.084a.14.14 0 0 0 .143-.14v-1.834a.14.14 0 0 0-.143-.139h-7.316a.138.138 0 0 0-.136.14v11.78c0 .076.062.143.136.143h7.482a.144.144 0 0 0 .139-.143v-1.834a.138.138 0 0 0-.138-.14ZM101.331 42.203h-4.327v-9.828a.137.137 0 0 0-.134-.139h-2.095a.138.138 0 0 0-.136.14v11.78c0 .076.061.143.136.143h6.855a.137.137 0 0 0 .105-.051.153.153 0 0 0 .033-.112l-.303-1.813a.137.137 0 0 0-.134-.12ZM111.33 42.182h-5.257v-3.094h4.349a.147.147 0 0 0 .104-.046.156.156 0 0 0 .034-.113l-.306-1.837c-.007-.067-.065-.117-.137-.117h-4.043V34.35h5.094a.14.14 0 0 0 .139-.14v-1.834a.14.14 0 0 0-.139-.139h-7.318a.137.137 0 0 0-.139.14v11.78c0 .076.06.143.139.143h7.481c.075 0 .136-.067.136-.143v-1.834a.138.138 0 0 0-.137-.14ZM111.203 14.226c-5.386-.846-10.629-2.612-14.042-4.235-1.979 5.183-5.796 10.738-9.792 14.557-.218.187-.044.51.313.26 8.535-5.904 17.426-8.737 23.53-9.92.333-.075.338-.568-.009-.662ZM92.14 42.203h-4.323v-9.828a.136.136 0 0 0-.139-.139h-2.09a.138.138 0 0 0-.137.14v11.78c0 .076.062.143.137.143h6.855a.13.13 0 0 0 .104-.051.15.15 0 0 0 .032-.112l-.304-1.813a.136.136 0 0 0-.136-.12Z" fill="#000"/></svg>
